dist/img/arrow_right.svg

<svg width="23" height="16" viewBox="0 0 23 16" fill="none" xmlns="http://www.w3.org/2000/svg">
<path d="M1.1039 9.16487H18.6436L14.5551 13.6789C14.1054 14.1805 14.1054 14.9556 14.5551 15.4572C15.0049 15.9587 15.6999 15.9587 16.1496 15.4572L22.9366 7.88817L22.1598 7.02184L16.1496 0.36477C15.9452 0.136789 15.659 0 15.3728 0C15.0866 0 14.8004 0.136789 14.596 0.36477C14.1463 0.86633 14.1463 1.64147 14.596 2.14303L18.6436 6.65707H1.1039C0.490622 6.65707 0 7.20422 0 7.93377C0 8.61771 0.490622 9.16487 1.1039 9.16487Z" fill="#F4811F"/>
</svg>

<svg fill="none" xmlns="http://www.w3.org/2000/svg" viewBox="0 0 23 16"><path d="M1.104 9.165h17.54l-4.089 4.514a1.34 1.34 0 000 1.778c.45.502 1.145.502 1.595 0l6.787-7.569-.777-.866L16.15.365A1.063 1.063 0 0015.373 0c-.286 0-.573.137-.777.365a1.34 1.34 0 000 1.778l4.048 4.514H1.104C.49 6.657 0 7.204 0 7.934c0 .684.49 1.23 1.104 1.23z" fill="#F4811F"/></svg>
